svg/fluentui-system-icons/ic_fluent_window_48_regular.svg

<svg width="48" height="48" viewBox="0 0 48 48" fill="none" xmlns="http://www.w3.org/2000/svg">
<path d="M12.25 6H35.75C39.2018 6 42 8.79822 42 12.25V35.75C42 39.2018 39.2018 42 35.75 42H12.25C8.79822 42 6 39.2018 6 35.75V12.25C6 8.79822 8.79822 6 12.25 6ZM8.5 16.5V35.75C8.5 37.8211 10.1789 39.5 12.25 39.5H35.75C37.8211 39.5 39.5 37.8211 39.5 35.75V16.5H8.5ZM39.5 14V12.25C39.5 10.1789 37.8211 8.5 35.75 8.5H12.25C10.1789 8.5 8.5 10.1789 8.5 12.25V14H39.5Z" fill="#212121"/>
</svg>

<svg xmlns="http://www.w3.org/2000/svg" width="48" height="48"><path d="M12.25 6h23.5A6.25 6.25 0 0 1 42 12.25v23.5A6.25 6.25 0 0 1 35.75 42h-23.5A6.25 6.25 0 0 1 6 35.75v-23.5A6.25 6.25 0 0 1 12.25 6ZM8.5 16.5v19.25a3.75 3.75 0 0 0 3.75 3.75h23.5a3.75 3.75 0 0 0 3.75-3.75V16.5h-31Zm31-2.5v-1.75a3.75 3.75 0 0 0-3.75-3.75h-23.5a3.75 3.75 0 0 0-3.75 3.75V14h31Z"/></svg>
